X:1
T:Mount Pleasant, 86.866
T:Mount Pleasant, 86.866
T:Martin Madan (1725-1790)
T:Public Domain Courtesy of the Cyber Hymnal™
C:Martin Madan (1725-1790)
Z:Public Domain
Z:Courtesy of the Cyber Hymnal™
%%score ( 1 2 ) ( 3 4 )
L:1/8
M:4/4
K:Bb
V:1 treble 
V:2 treble 
V:3 bass 
V:4 bass 
V:1
 F4 | (B3 c d2) [Ac]2 | B4 ([Ff]2 [Ae]2) | [Bd]4 [Ac]4 | !fermata!B4 [Bd]4 | [Bf]4 [ce]4 | %6
 ([Bd][Ac][GB][Ac]) [Bd]2 e2 | !fermata![Af]4 [Df]4 | ([Eg]2 [Ge]2) (d2 c2) | [Ff]4 [Ae]4 | %10
 ([Bd]2 [GB]2) ([FA]2 [EG]2) | !fermata!F4 [FB]4 | [FA]2 [GB]2 [Ac]2 [Bd]2 | %13
 ([ce]2 [Ac]2 [Bd]2) [Fe]2 | [Gf]4 [Ge]4 | ([Bd]2 ec [FB]2) [FA]2 | !fermata![FB]4 |] %17
V:2
 F4 | F6 x2 | B4 x4 | x8 | B4 x4 | x8 | x6 (cB) | x8 | x4 F4 | x8 | x8 | F4 x4 | x8 | x8 | x8 | %15
 x2 G2 x4 | x4 |] %17
V:3
 [F,B,]4 | B,6 [F,E]2 | [G,D]4 ([D,D]2 [E,C]2) | [F,D]4 [F,D]4 | !fermata![B,,D]4 [B,F]4 | %5
 [B,D]4 [CG]4 | (DCB,C) D2 (ED) | !fermata![F,C]4 [B,D]4 | [E,G]4 ([G,D]2 [F,C]2) | %9
 [D,B,]4 [C,C]4 | [B,,D]4 [C,C]4 | !fermata![F,C]4 G,4 | F,2 D,2 C,2 B,,2 | (E,2 F,2 B,2) [A,C]2 | %14
 [B,D]4 [E,C]4 | ([G,B,]2 [E,C]2 [F,D]2) [F,E]2 | !fermata![B,,D]4 |] %17
V:4
 x4 | (D,3 C, B,,2) x2 | x8 | x8 | x8 | x8 | G,6 G,2 | x8 | x8 | x8 | x8 | x8 | x8 | x8 | x8 | x8 | %16
 x4 |] %17

